apps/symbolic/firefox-symbolic.svg

<svg height="24" viewBox="0 0 24 24" width="24" xmlns="http://www.w3.org/2000/svg"><path d="m21 11.658835c0-.392649-.098162-.981623-.196324-1.374272-.294487-1.6687583-1.177947-3.1411927-2.257733-4.3191403-.196324-.2944869-.588974-.5889738-.981623-.8834606-1.079785-.8834607-2.355895-1.4724345-3.828328-1.7669213-2.94487-.4908115-5.8897386.4908114-7.8529846 2.5522196-.2430999-.3569722-.3821455-.8458067-.4908114-1.2761098-.8751004.8594666-1.0923496 1.7643282-.7852984 2.8467065-.7740743 1.0643566-1.3619666 2.1154513-1.6068976 3.3955089.062563-.177788.6085471-.450956.5271124-.450641-.4908115 2.55222.1963246 5.202602 1.7669213 7.165848 2.3558951 2.846707 6.3805493 4.024654 9.9143913 2.748544 3.43568-1.27611 5.791575-4.613627 5.791575-8.343794zm-7.362171-7.4603336c1.472434.294487 2.846706.981623 3.926491 1.9632459.09816.098162.196325.2944869.196325.2944869-.294487-.2944869-1.838418-1.0672814-2.231067-.8709569 1.64826.8632509 2.378685 2.251789 2.623716 3.5213393.705653 2.7731854-1.329684 5.5561434-3.533843 6.1842234-1.833747.306673-3.328232.03739-4.515465-1.079785h1.079785c.588974-.09816 3.141193-.981623 3.043031-1.374272.000159-.294576-.400642-.540906-.687136-.687136-.294487-.09816-1.57213.144176-2.062941.3405 0 0-1.7653883-.536824-2.2561992-.929474 0-.09816-.098163-.687136-.098163-.785298-.098162-.09816.2944874-.39265.2944874-.39265.5382851-.6897504 1.2637188-.572754 1.9313738-1.0500396.294487-.1963246.306438-.2071701.490812-.4908115 0 0 .490811-.8834606-.09816-.7852984-.620454-.041508-1.448888-.7154624-1.9313749-.7168804 0 0-.1963244-.1963246-.1963244-.2944869.09816-.1963248.7852963-1.6687593 1.0797843-1.7669215-.196326-.3926492-1.1779487-.0981623-1.374273.1963246-1.0475573.8729128-1.4671416.7127033-2.1595707.4908114 1.7669213-1.4724343 4.1228167-2.1595705 6.4787117-1.7669213z" fill="#bebebe" stroke-width=".818182"/></svg>

<?xml version="1.0" encoding="UTF-8" standalone="no"?>
<svg
   xmlns:dc="http://purl.org/dc/elements/1.1/"
   xmlns:cc="http://creativecommons.org/ns#"
   xmlns:rdf="http://www.w3.org/1999/02/22-rdf-syntax-ns#"
   xmlns:svg="http://www.w3.org/2000/svg"
   xmlns="http://www.w3.org/2000/svg"
   xmlns:sodipodi="http://sodipodi.sourceforge.net/DTD/sodipodi-0.dtd"
   xmlns:inkscape="http://www.inkscape.org/namespaces/inkscape"
   version="1.1"
   width="24"
   height="24"
   viewBox="0 0 24 24"
   id="svg2"
   inkscape:version="0.92.1 r15371"
   sodipodi:docname="firefox-symbolic.svg">
  <metadata
     id="metadata10">
    <rdf:RDF>
      <cc:Work
         rdf:about="">
        <dc:format>image/svg+xml</dc:format>
        <dc:type
           rdf:resource="http://purl.org/dc/dcmitype/StillImage" />
        <dc:title />
        <cc:license
           rdf:resource="http://creativecommons.org/licenses/by-sa/3.0/" />
      </cc:Work>
      <cc:License
         rdf:about="http://creativecommons.org/licenses/by-sa/3.0/">
        <cc:permits
           rdf:resource="http://creativecommons.org/ns#Reproduction" />
        <cc:permits
           rdf:resource="http://creativecommons.org/ns#Distribution" />
        <cc:requires
           rdf:resource="http://creativecommons.org/ns#Notice" />
        <cc:requires
           rdf:resource="http://creativecommons.org/ns#Attribution" />
        <cc:permits
           rdf:resource="http://creativecommons.org/ns#DerivativeWorks" />
        <cc:requires
           rdf:resource="http://creativecommons.org/ns#ShareAlike" />
      </cc:License>
    </rdf:RDF>
  </metadata>
  <defs
     id="defs8" />
  <sodipodi:namedview
     pagecolor="#ffffff"
     bordercolor="#666666"
     borderopacity="1"
     objecttolerance="10"
     gridtolerance="10"
     guidetolerance="10"
     inkscape:pageopacity="0"
     inkscape:pageshadow="2"
     inkscape:window-width="640"
     inkscape:window-height="480"
     id="namedview6"
     showgrid="false"
     inkscape:zoom="22.627417"
     inkscape:cx="7.5624553"
     inkscape:cy="11.019733"
     inkscape:current-layer="svg2" />
  <path
     d="M 21,11.658835 C 21,11.266186 20.901838,10.677212 20.803676,10.284563 20.509189,8.6158047 19.625729,7.1433703 18.545943,5.9654227 18.349619,5.6709358 17.956969,5.3764489 17.56432,5.0819621 16.484535,4.1985014 15.208425,3.6095276 13.735992,3.3150408 10.791122,2.8242293 7.8462534,3.8058522 5.8830074,5.8672604 5.6399075,5.5102882 5.5008619,5.0214537 5.392196,4.5911506 4.5170956,5.4506172 4.2998464,6.3554788 4.6068976,7.4378571 3.8328233,8.5022137 3.244931,9.5533084 3,10.833366 3.062563,10.655578 3.6085471,10.38241 3.5271124,10.382725 3.0363009,12.934945 3.723437,15.585327 5.2940337,17.548573 7.6499288,20.39528 11.674583,21.573227 15.208425,20.297117 18.644105,19.021007 21,15.68349 21,11.953323 V 11.658835 M 13.637829,4.1985014 c 1.472434,0.294487 2.846706,0.981623 3.926491,1.9632459 0.09816,0.098162 0.196325,0.2944869 0.196325,0.2944869 -0.294487,-0.2944869 -1.838418,-1.0672814 -2.231067,-0.8709569 1.64826,0.8632509 2.378685,2.251789 2.623716,3.5213393 v 0 0 c 0.705653,2.7731854 -1.329684,5.5561434 -3.533843,6.1842234 -1.833747,0.306673 -3.328232,0.03739 -4.515465,-1.079785 h 1.079785 c 0.588974,-0.09816 3.141193,-0.981623 3.043031,-1.374272 1.59e-4,-0.294576 -0.400642,-0.540906 -0.687136,-0.687136 -0.294487,-0.09816 -1.57213,0.144176 -2.062941,0.3405 0,0 -1.7653883,-0.536824 -2.2561992,-0.929474 0,-0.09816 -0.098163,-0.687136 -0.098163,-0.785298 -0.098162,-0.09816 0.2944874,-0.39265 0.2944874,-0.39265 C 9.9551353,9.6929746 10.680569,9.809971 11.348224,9.3326854 v 0 c 0.294487,-0.1963246 0.306438,-0.2071701 0.490812,-0.4908115 0,0 0.490811,-0.8834606 -0.09816,-0.7852984 -0.620454,-0.041508 -1.448888,-0.7154624 -1.9313749,-0.7168804 0,0 -0.1963244,-0.1963246 -0.1963244,-0.2944869 C 9.7113367,6.8488834 10.398473,5.3764489 10.692961,5.2782867 10.496635,4.8856375 9.5150123,5.1801244 9.318688,5.4746113 8.2711307,6.3475241 7.8515464,6.1873146 7.1591173,5.9654227 8.9260386,4.4929884 11.281934,3.8058522 13.637829,4.1985014 Z"
     id="path4"
     style="fill:#bebebe;fill-opacity:1;stroke-width:0.81818187"
     inkscape:connector-curvature="0"
     sodipodi:nodetypes="ccccccccccccsccccccccccccccccccccccccccc" />
</svg>
